img/illustrations/Information.svg

<svg width="145" height="145" viewBox="0 0 145 145" fill="none" xmlns="http://www.w3.org/2000/svg">
<path d="M5 120.89H140" stroke="#007B64" stroke-width="2" stroke-linecap="round" stroke-linejoin="round"/>
<path d="M10.07 68.56C10.07 68.56 17.62 58.87 17.62 52.4C17.62 45.93 25.16 35.16 25.16 35.16L12.57 35.37L9.69 39.09L9 47.55V68.55L10.07 68.56Z" fill="#EBEBEB"/>
<path d="M18.0101 120.72H15.2001C14.3662 120.721 13.5402 120.558 12.7693 120.24C11.9984 119.923 11.2976 119.456 10.707 118.867C10.1164 118.278 9.64761 117.579 9.32728 116.809C9.00695 116.039 8.8414 115.214 8.84009 114.38V106.03" stroke="#007B64" stroke-width="1.96" stroke-linecap="round" stroke-linejoin="round"/>
<path d="M129.64 34.72C133.15 34.72 136 37.57 136 42.15V115.46C136 117.88 133.15 120.72 129.64 120.72H124.69" stroke="#007B64" stroke-width="1.96" stroke-linecap="round" stroke-linejoin="round"/>
<path d="M8.84009 96.52V41.07C8.84274 39.385 9.51398 37.7698 10.7064 36.5793C11.8989 35.3887 13.515 34.72 15.2001 34.72" stroke="#007B64" stroke-width="1.96" stroke-linecap="round" stroke-linejoin="round"/>
<path d="M72.3501 121.91H19.5501C17.8341 121.91 16.1885 121.228 14.9751 120.015C13.7617 118.802 13.0801 117.156 13.0801 115.44V33.54C13.0827 31.8258 13.7656 30.1827 14.9786 28.9715C16.1917 27.7603 17.8359 27.08 19.5501 27.08H65.8901C67.6034 27.08 69.2465 27.7606 70.458 28.9721C71.6695 30.1836 72.3501 31.8267 72.3501 33.54V121.91Z" fill="white"/>
<path d="M65.8901 29.08C67.0729 29.08 68.2074 29.5499 69.0438 30.3863C69.8802 31.2227 70.3501 32.3571 70.3501 33.54V119.91H19.5501C18.3646 119.91 17.2276 119.439 16.3893 118.601C15.551 117.762 15.0801 116.626 15.0801 115.44V33.54C15.0827 32.3562 15.5548 31.2218 16.3928 30.3857C17.2308 29.5496 18.3663 29.08 19.5501 29.08H65.8901ZM65.8901 27.08H19.5501C17.8359 27.08 16.1917 27.7603 14.9786 28.9715C13.7656 30.1827 13.0827 31.8258 13.0801 33.54V115.44C13.0801 117.156 13.7617 118.802 14.9751 120.015C16.1885 121.228 17.8341 121.91 19.5501 121.91H72.3501V33.54C72.3501 31.8267 71.6695 30.1836 70.458 28.9721C69.2465 27.7606 67.6034 27.08 65.8901 27.08V27.08Z" fill="#007B64"/>
<path d="M122.65 120.83H71.1899V34.47C71.1899 30.98 74.6799 28.15 78.9999 28.15H122.65C126.96 28.15 130.46 30.98 130.46 34.47V114.47C130.46 118 126.96 120.83 122.65 120.83Z" fill="white"/>
<path d="M71.8799 114.36H130.41C130.41 116.076 129.728 117.722 128.515 118.935C127.302 120.148 125.656 120.83 123.94 120.83H71.8799V114.36Z" fill="#EBEBEB"/>
<path d="M118.72 28.15H122.65C126.96 28.15 130.46 30.98 130.46 34.47V114.47C130.46 117.96 126.96 120.79 122.65 120.79H71.1899V34.47C71.1899 30.98 74.6799 28.15 78.9999 28.15H96.2099" stroke="#007B64" stroke-width="2" stroke-linecap="round" stroke-linejoin="round"/>
<path d="M24.1499 77.72H58.7899" stroke="#007B64" stroke-width="2" stroke-linecap="round" stroke-linejoin="round"/>
<path d="M24.1499 84.19H58.7899" stroke="#007B64" stroke-width="2" stroke-linecap="round" stroke-linejoin="round"/>
<path d="M24.1499 90.66H58.7899" stroke="#007B64" stroke-width="2" stroke-linecap="round" stroke-linejoin="round"/>
<path d="M24.1499 97.12H58.7899" stroke="#007B64" stroke-width="2" stroke-linecap="round" stroke-linejoin="round"/>
<path d="M59.15 49.71H23.79C23.1935 49.71 22.71 50.1935 22.71 50.79V64.79C22.71 65.3865 23.1935 65.87 23.79 65.87H59.15C59.7464 65.87 60.23 65.3865 60.23 64.79V50.79C60.23 50.1935 59.7464 49.71 59.15 49.71Z" fill="#FFC463"/>
<path d="M119.62 75.57H81.9799C81.3834 75.57 80.8999 76.0535 80.8999 76.65V97.12C80.8999 97.7165 81.3834 98.2 81.9799 98.2H119.62C120.216 98.2 120.7 97.7165 120.7 97.12V76.65C120.7 76.0535 120.216 75.57 119.62 75.57Z" fill="#007B64"/>
<path d="M113.56 47.49L108.41 44.58C108.356 44.5451 108.294 44.5266 108.23 44.5266C108.166 44.5266 108.104 44.5451 108.05 44.58L102.88 47.49C102.815 47.532 102.737 47.5497 102.66 47.54C102.298 47.488 101.968 47.3019 101.737 47.0185C101.505 46.7352 101.389 46.3753 101.41 46.01V26.37C101.41 26.2719 101.449 26.1778 101.518 26.1084C101.588 26.039 101.682 26 101.78 26H114.66C114.757 26.0025 114.85 26.0423 114.919 26.1112C114.988 26.18 115.027 26.2727 115.03 26.37V46.01C115.051 46.3738 114.936 46.7324 114.707 47.0155C114.477 47.2987 114.15 47.4857 113.79 47.54C113.71 47.5522 113.628 47.5344 113.56 47.49V47.49Z" fill="#FFC463"/>
</svg>

<svg width="145" height="145" fill="none" xmlns="http://www.w3.org/2000/svg"><path d="M5 120.89h135" stroke="#007B64" stroke-width="2" stroke-linecap="round" stroke-linejoin="round"/><path d="M10.07 68.56s7.55-9.69 7.55-16.16c0-6.47 7.54-17.24 7.54-17.24l-12.59.21-2.88 3.72L9 47.55v21l1.07.01z" fill="#EBEBEB"/><path d="M18.01 120.72H15.2a6.354 6.354 0 01-6.36-6.34v-8.35m120.8-71.31c3.51 0 6.36 2.85 6.36 7.43v73.31c0 2.42-2.85 5.26-6.36 5.26h-4.95M8.84 96.52V41.07a6.36 6.36 0 016.36-6.35" stroke="#007B64" stroke-width="1.96" stroke-linecap="round" stroke-linejoin="round"/><path d="M72.35 121.91h-52.8a6.472 6.472 0 01-6.47-6.47v-81.9a6.47 6.47 0 016.47-6.46h46.34a6.46 6.46 0 016.46 6.46v88.37z" fill="#fff"/><path d="M65.89 29.08a4.46 4.46 0 014.46 4.46v86.37h-50.8a4.471 4.471 0 01-4.47-4.47v-81.9a4.47 4.47 0 014.47-4.46h46.34zm0-2H19.55a6.47 6.47 0 00-6.47 6.46v81.9a6.47 6.47 0 006.47 6.47h52.8V33.54a6.46 6.46 0 00-6.46-6.46z" fill="#007B64"/><path d="M122.65 120.83H71.19V34.47c0-3.49 3.49-6.32 7.81-6.32h43.65c4.31 0 7.81 2.83 7.81 6.32v80c0 3.53-3.5 6.36-7.81 6.36z" fill="#fff"/><path d="M71.88 114.36h58.53a6.47 6.47 0 01-6.47 6.47H71.88v-6.47z" fill="#EBEBEB"/><path d="M118.72 28.15h3.93c4.31 0 7.81 2.83 7.81 6.32v80c0 3.49-3.5 6.32-7.81 6.32H71.19V34.47c0-3.49 3.49-6.32 7.81-6.32h17.21M24.15 77.72h34.64m-34.64 6.47h34.64m-34.64 6.47h34.64m-34.64 6.46h34.64" stroke="#007B64" stroke-width="2" stroke-linecap="round" stroke-linejoin="round"/><path d="M59.15 49.71H23.79a1.08 1.08 0 00-1.08 1.08v14c0 .596.483 1.08 1.08 1.08h35.36a1.08 1.08 0 001.08-1.08v-14a1.08 1.08 0 00-1.08-1.08z" fill="#FFC463"/><path d="M119.62 75.57H81.98a1.08 1.08 0 00-1.08 1.08v20.47c0 .596.483 1.08 1.08 1.08h37.64a1.08 1.08 0 001.08-1.08V76.65a1.08 1.08 0 00-1.08-1.08z" fill="#007B64"/><path d="M113.56 47.49l-5.15-2.91a.33.33 0 00-.36 0l-5.17 2.91a.33.33 0 01-.22.05 1.459 1.459 0 01-1.25-1.53V26.37a.371.371 0 01.37-.37h12.88a.381.381 0 01.37.37v19.64a1.463 1.463 0 01-1.24 1.53.33.33 0 01-.23-.05z" fill="#FFC463"/></svg>
